static/logos/olx-glyph-color.svg

<svg width="100" height="58" viewBox="0 0 100 58" fill="none" xmlns="http://www.w3.org/2000/svg">
<g clip-path="url(#clip0_1_1820)">
<path fill-rule="evenodd" clip-rule="evenodd" d="M65.4772 57.1429H51.9415V0H65.4772V57.1429ZM47.1078 28.6408C47.1078 41.648 36.5609 52.1735 23.567 52.1735C10.5721 52.1735 0.0078125 41.6306 0.0078125 28.6408C0.0078125 15.651 10.5548 5.10714 23.5486 5.10714C36.5435 5.10714 47.1078 15.6327 47.1078 28.6408V28.6408ZM30.6711 28.6408C30.6719 27.7067 30.4884 26.7815 30.1312 25.9184C29.7739 25.0552 29.2499 24.271 28.5892 23.6106C27.9285 22.9503 27.1439 22.4267 26.2806 22.07C25.4172 21.7132 24.492 21.5303 23.5578 21.5316C22.6236 21.5303 21.6984 21.7132 20.835 22.07C19.9717 22.4267 19.1872 22.9503 18.5264 23.6106C17.8657 24.271 17.3417 25.0552 16.9844 25.9184C16.6272 26.7815 16.4437 27.7067 16.4445 28.6408C16.4439 29.5748 16.6274 30.4998 16.9846 31.3627C17.3419 32.2257 17.8658 33.0097 18.5264 33.67C19.187 34.3302 19.9714 34.8537 20.8346 35.2104C21.6977 35.5672 22.6228 35.7502 23.5568 35.749C24.491 35.7505 25.4162 35.5676 26.2796 35.211C27.1431 34.8544 27.9276 34.331 28.5885 33.6707C29.2493 33.0104 29.7734 32.2263 30.1308 31.3632C30.4881 30.5001 30.6717 29.575 30.6711 28.6408V28.6408ZM99.8343 14.3551H90.8384L85.5568 19.6296L80.2752 14.3541H71.2772V23.4969L76.4884 28.701L71.2772 33.9061V42.9265H80.415L85.5731 37.7745L90.7313 42.9265H99.869V33.9061L94.6578 28.702L99.869 23.498V14.3551H99.8333H99.8343Z" fill="#002F34"/>
</g>
<defs>
<clipPath id="clip0_1_1820">
<rect width="100" height="57.1429" fill="white"/>
</clipPath>
</defs>
</svg>

<svg xmlns="http://www.w3.org/2000/svg" width="110.345" height="64" fill="none" viewBox="0 0 100 58"><g clip-path="url(#a)"><path fill="#002F34" fill-rule="evenodd" d="M65.477 57.143H51.941V0h13.536v57.143ZM47.107 28.64c0 13.007-10.546 23.532-23.54 23.532-12.995 0-23.56-10.542-23.56-23.532S10.556 5.107 23.55 5.107c12.995 0 23.559 10.526 23.559 23.534Zm-16.436 0a7.104 7.104 0 0 0-7.113-7.11 7.103 7.103 0 0 0-7.113 7.11 7.105 7.105 0 0 0 7.112 7.108 7.103 7.103 0 0 0 7.114-7.108Zm69.163-14.286h-8.996l-5.281 5.275-5.282-5.276h-8.998v9.143l5.211 5.204-5.21 5.205v9.02h9.137l5.158-5.151 5.158 5.151h9.138v-9.02l-5.211-5.204 5.211-5.204v-9.143h-.036.001Z" clip-rule="evenodd"/></g><defs><clipPath id="a"><path fill="#fff" d="M0 0h100v57.143H0z"/></clipPath></defs></svg>
